X:1
T:Get Right with God
T:James Fitch, arr. by Charles H. Gabriel
T:Get Right with God
T:Public Domain
T:Public Domain
T:Public Domain
C:James Fitch, arr. by Charles H. Gabriel
Z:Public Domain
%%score ( 1 2 ) ( 3 4 )
L:1/8
M:4/4
K:Eb
V:1 treble 
V:2 treble 
V:3 bass 
V:4 bass 
V:1
 E | [EG]2 E2 [GB]3 [EG] | [Ec]2 [Ee]2 [EB]3 [EG] | [GB]2 [Ac]2 [GB]2 [EG]2 | [DA]2 [EG]2 [DF]3 E | %5
w: 1.~Get|with God, why will|die? Oh, wea- ry|one, for mer- cy|cry; No long- er|
w: 2.~Get|with God— for you|died, On Cal- vary’s|cross was cru- ci-|fied; His side was|
w: 3.~Get|with God, He loves|so; No mo- ther’s|love could stoop so|low; On Christ He|
w: 4.~Get|with God, your loved|said When ly- ing|on their dy- ing|bed; But ah! you’ve|
w: 5.~Get|with God, con- fess|sin, And let the|dear Re- deem- er|in; He hath for|
 [EG]2 E2 [GB]3 [EG] | [Ee]2 [Ed]2 [Ec]3 [Ad] | [Ge]2 (dc) [GB]2 (EA) | [EG]2 [DF]2 E3 || %9
w: the down- ward road;|come a- way, get|right with * God. * *||
w: blood from it flowed;|come a- way, get|right with * God. * *||
w: sin’s hea- vy load,|come a- way, get|right with * God. Get *|God; get right|
w: dered far a- broad,|come a- way, get|right with * God. * *||
w: the wine- press trod,|come a- way, get|right with * God. * *||
"^Refrain" E | [EG]2 E2 [GB]3 [GB] | [Ac]2 [EA]2 [Ae]3 [Ae] | [Ge]2 (dc) [GB]3 [EG] | %13
w: ||||
w: ||||
w: God;|come a- way, get|with God; No long-|er walk * the down-|
w: ||||
w: ||||
 [FA]2 [EG]2 [DF]3 E | [EG]2 E2 [GB]3 [EG] | [Ee]2 [Ed]2 [Ec]3 [Ad] | [Ge]2 (dc) [GB]2 (EA) | %17
w: ||||
w: ||||
w: road; Oh, come a-|get right with God.|||
w: ||||
w: ||||
 [EG]2 [DF]2 E3 |] %18
w: |
w: |
w: |
w: |
w: |
V:2
 E | x2 E2 x4 | x8 | x8 | x7 E | x2 E2 x4 | x8 | x2 A2 x E2 x | x4 E3 || E | x2 E2 x4 | x8 | %12
w: right|you|||walk|Oh,|||||||
w: right|Christ|||pierced,|Oh,|||||||
w: right|you|||laid|Oh,||right with|with|Oh,|right||
w: right|ones|||wan-|Oh,|||||||
w: right|your|||you|Oh,|||||||
 x2 A2 x4 | x7 E | x2 E2 x4 | x8 | x2 A2 x E2 x | x4 E3 |] %18
w: ||||||
w: ||||||
w: ward|way,|||||
w: ||||||
w: ||||||
V:3
 [E,G,] | [E,B,]2 [E,G,]2 [E,E]3 [E,B,] | [A,,A,]2 [C,A,]2 [E,G,]3 [E,B,] | %3
 [E,E]2 [E,E]2 [E,E]2 [E,B,]2 | [F,B,]2 [E,B,]2 [B,,B,]3 [E,G,] | [E,B,]2 [E,G,]2 [E,E]3 [E,B,] | %6
 [G,B,]2 [G,B,]2 A,3 [F,B,] | [E,B,]2 [E,C]2 [E,E]2 ([G,B,][A,C]) | B,2 [B,,A,]2 [E,G,]3 || %9
 [E,G,] | [E,B,]2 [E,G,]2 [E,E]3 [E,E] | [A,E]2 [A,C]2 [A,C]3 [A,C] | %12
 [E,B,]2 [E,C]2 [E,E]3 [E,B,] | [D,B,]2 [E,B,]2 [B,,B,]3 [E,G,] | [E,B,]2 [E,G,]2 [E,E]3 [E,B,] | %15
 [G,B,]2 [G,B,]2 A,3 [F,B,] | [E,B,]2 [E,C]2 [E,E]2 ([G,B,][A,C]) | B,2 [B,,A,]2 [E,G,]3 |] %18
V:4
 x | x8 | x8 | x8 | x8 | x8 | x4 A,3 x | x8 | B,2 x5 || x | x8 | x8 | x8 | x8 | x8 | x4 A,3 x | %16
 x8 | B,2 x5 |] %18

